X: 1
T:Western Gem -- Reel
M:2/4
L:1/16
R:reel
B:Ryan's Mammoth Collection
N:376
Z:Contributed by Ray Davies,  ray:davies99.freeserve.co.uk
K:A
u((3EFG)|\
AcBA Ac"4"ec | defg afec | "1"A2(cB) Ac"4"ec | BcBA GEFG |
"1"A2(cB) Ac"4"ec | defg ((3aga)(ec) | fedf ecAc | BAGB A2 H:|
K:E
|:vGA|\
(cB).B.B .B2vcd | edef .g2(fg) | agfa gfeg | fedc BAGA |
(cB).B.B .B2vcd | edef .g2(fg) | agfa gfeg | fedf e2 :|
